!!!COM:	Ockeghem, Johannes
!!!CDT:	~1425-1497/02/06
!!!OPR:	Missa Mi mi
!!!ONM:	3
!!!OTL:	Credo
!!!AGN:	Mass; Credo
!!!SCT:	Ock1010c
!!!voices:	4
!!!voices-OPR:	4
**kern	**kern	**kern	**kern
*staff4	*staff3	*staff2	*staff1
*Ivox	*Ivox	*Ivox	*Ivox
*I"Bassus	*I"Tenor	*I"Altus	*I"Superius
*I'B	*I'T	*I'A	*I'S
*clefF4	*clefGv2	*clefGv2	*clefG2
*k[]	*k[]	*k[]	*k[]
*M3/1	*M3/1	*M3/1	*M3/1
*met(O)	*met(O)	*met(O)	*met(O)
=1-	=1-	=1-	=1-
!!section: Patrem
!!!OMD: Patrem
1.E	0.E	1.E	[0.e
2AA/	.	2C/	.
1AA	.	[1C	.
=2	=2	=2	=2
1E	1G	1C]	1e]
0D	1.A	1r	0f
.	.	1F	.
.	2B\	.	.
=3	=3	=3	=3
0.C	1.c	2G/	1e
.	.	1A	.
.	.	.	1r
.	2B\	2G/	.
.	1G	1E	[1e
=4	=4	=4	=4
1AA	1A	1c	1e]
1D	2F/	0A	1d
.	2D/	.	.
1AA	1E	.	1c
=5	=5	=5	=5
0BB	2D/	1r	1.d
.	1G	.	.
.	.	[0D	.
.	4F/	.	2B/
.	4E/	.	.
[1GG	[1G	.	1B
=6	=6	=6	=6
1GG]	1G]	0D]	2B/
.	.	.	2B/
1D	1F	.	2A/
.	.	.	2.d/
1F	1D	1A	.
.	.	.	4c/
.	.	.	2A/
=7	=7	=7	=7
!!linebreak:original
2E\	2E/	0.r	2G/
2D\	2.F/	.	2.B/
2AA/	.	.	.
.	4E/	.	4A/
2C/	1E	.	1A
1BB	.	.	.
.	2D/	.	2G#i/
=8	=8	=8	=8
0AA	1E	0C	0A
.	1r	.	.
1r	1F	1D	1r
=9	=9	=9	=9
1.GG	0.G	2r	1.d
.	.	1D	.
2AA/	.	2D/	2d/
1BB	.	1D	2d/
.	.	.	2d/
=10	=10	=10	=10
2AA/	1A	2.E/	1c
2FF/	.	.	.
.	.	4F/	.
1EE	2.G/	0G	2.e/
.	4A/	.	4f/
2.E\	2B\	.	2.g/
.	2c\	.	.
4F\	.	.	4f/
=11	=11	=11	=11
1G	1B	2r	1d
.	.	2G/	.
2F\	1A	2A/	2r
2D\	.	2F/	2d/
1E	2r	1G	2.g/
.	2G/	.	.
.	.	.	4e/
=12	=12	=12	=12
1D	2.A/	2F/	2f/
.	.	2D/	2.a/
.	4B\	.	.
1AA	1.c	0E	.
.	.	.	4g/
.	.	.	1a
1C	.	.	.
.	2B\	.	[2g/
=13	=13	=13	=13
1r	2G/	1r	4g/]
.	.	.	4e/
.	1A	.	2.f/
1C	.	1r	.
.	.	.	4e/
.	2E/	.	1e
1D	1F	1A	.
.	.	.	2d/
=14	=14	=14	=14
!!linebreak:original
0AA	1.E	0A	0e
.	2F/	.	.
1BB	1G	1d	1r
=15	=15	=15	=15
1AA	2A/	4c\	2.e/
.	.	4B\	.
.	1c	2.A/	.
.	.	.	4f/
1r	.	.	2g/
.	.	4G/	.
.	2A/	2F/	1a
1r	1B	1E	.
.	.	.	2g#i/
=16	=16	=16	=16
1AA	1A	2r	1a
.	.	1E	.
2C/	1r	.	2g/
2D\	.	2D/	2.f/
1AA	1A	1C	.
.	.	.	4d/
.	.	.	2e/
=17	=17	=17	=17
1D	2.F/	1D	2f/
.	.	.	2.d/
.	4G/	.	.
1GG	1B-	1G	.
.	.	.	4e/
.	.	.	1g
2C/	1A	2E/	.
2D\	.	2F/	2f/
=18	=18	=18	=18
2E\	2G/	2C/	2e/
2F\	2A/	2r	1c
1C	2c\	2E/	.
.	1c	2C/	2e/
1GG	.	[1G	1d
.	2B\	.	.
=19	=19	=19	=19
1C	1c	1G]	1c
1.FF	1.c	1.A	1.f
2FF/	2c\	2A/	2f/
=20	=20	=20	=20
1FF	1c	1A	1f
0FF	1A	1F	1f
.	[1F	[1C	[1a
=21	=21	=21	=21
!!pagebreak:original
1FF	2F/]	1C]	2a/]
.	4E/	.	2g/
.	4D/	.	.
1C	1E	2r	1g
.	.	2c\	.
[1D	1F	2A/	[1f
.	.	[2B\	.
=22	=22	=22	=22
2D\]	1r	2B\]	2f/]
2C/	.	2A/	2e/
1C	1G	2.c\	1e
.	.	4B\	.
1r	2E/	2G/	2c/
.	2D/	2A/	[2d/
=23	=23	=23	=23
0.r	1G	1B	2d/]
.	.	.	2B/
.	2A/	2c\	2A/
.	1A	2A/	2c/
.	.	[1E	1B
.	2G#i/	.	.
=24	=24	=24	=24
0AA	0.A	2E/]	1A
.	.	2.F/	.
.	.	.	1r
.	.	4D/	.
.	.	2E/	.
[1FF	.	[1F	1a
=25	=25	=25	=25
1FF]	0.c	1F]	1.a
1.C	.	1E	.
.	.	.	1g
.	.	2r	.
[2D\	.	[2F/	2f/
=26	=26	=26	=26
2D\]	2r	2F/]	2f/
2E\	2B\	2G/	4e/
.	.	.	4d/
1F	2A/	2.A/	2c/
.	2F/	.	2.f/
.	.	4B\	.
1C	1G	1c	.
.	.	.	4e/
.	.	.	[2e/
=27	=27	=27	=27
0.r	1F	1A	2e/]
.	.	.	2d/
.	2E/	2G/	2c/
.	2D/	2F/	1d
.	2G/	1G	.
.	[2G/	.	2B/
=28	=28	=28	=28
!!linebreak:original
1r	2G/]	1D	1A
.	2F#i/	.	.
1r	1.G	1B	1G
1C	.	2c\	1r
.	2E/	2A/	.
=29	=29	=29	=29
2BB/	2D/	2.G/	0.r
2C/	2E/	.	.
.	.	4F/	.
2D\	2F/	2D/	.
1E	2.G/	2C/	.
.	.	[1G	.
.	4A/	.	.
4D\	2B\	.	.
4C/	.	.	.
=30	=30	=30	=30
2E\	2.c\	2G/]	1r
2D\	.	2F/	.
.	4B\	.	.
2BB/	4A/	2D/	1r
.	4G/	.	.
2C/	1G	2E/	.
1AA	.	1C	2.c/
.	2F#i/	.	.
.	.	.	4A/
=31	=31	=31	=31
0GG	0.G	1D	2.B/
.	.	.	4c/
.	.	1r	2d/
.	.	.	1e
1r	.	[1C	.
.	.	.	4d/
.	.	.	4c/
=32	=32	=32	=32
1r	1.G	1C]	2.e/
.	.	.	4d/
1r	.	2E/	2B/
.	2E/	2C/	2c/
1D	1F	1D	1A
=33	=33	=33	=33
0E	0G	1r	0G
.	.	2.C/	.
.	.	4D/	.
2.AA/	1A	[1E	2c/
.	.	.	2d/
4BB/	.	.	.
=34	=34	=34	=34
1C	[0.A	2E/]	1e
.	.	2C/	.
0FF	.	1C	2f/
.	.	.	1f
.	.	1c	.
.	.	.	2d/
=35	=35	=35	=35
!!linebreak:original
1AA	1A]	2r	1c
.	.	2c\	.
0BB	2.G/	2B\	1.d
.	.	1G	.
.	4F/	.	.
.	1D	.	.
.	.	4F/	2B/
.	.	4G/	.
=36	=36	=36	=36
1r	1F	1A	1A
0C	0G	1.c	1.e
.	.	2A/	2d/
=37	=37	=37	=37
1D	1F	1A	1.d
0AA	0E	1r	.
.	.	.	4c/
.	.	.	4d/
.	.	1A	2.c/
.	.	.	4B/
=38	=38	=38	=38
1.BB-	1D	2.G/	0d
.	.	4F/	.
.	2E/	4E/	.
.	.	4D/	.
2GG/	1G	2.D/	.
1AA	.	.	1c
.	.	4BB/	.
.	2F#i/	2C/	.
=39	=39	=39	=39
[0.GG	0.G	1D	1B
.	.	1r	2c/
.	.	.	1e
.	.	1G	.
.	.	.	2d/
=40	=40	=40	=40
0.GG]	1r	1.G	1.d
.	1r	.	.
.	.	4F/	4c/
.	.	4E/	4d/
.	1G	2D/	2.B/
.	.	2E/	.
.	.	.	4A/
=41	=41	=41	=41
1.D	0A	0F	0A
4C/	.	.	.
4D\	.	.	.
2.BB/	1r	2D/	1r
.	.	2C/	.
4AA/	.	.	.
=42	=42	=42	=42
!!linebreak:original
0.AA	1.A	0E	1.c
.	4G/	.	2c/
.	4A/	.	.
.	2F/	1A	1c
.	2E/	.	.
=43	=43	=43	=43
1AA	1E	1A	1c
1.BB	0D	1.G	1.d
2AA/	.	2F/	2c/
=44	=44	=44	=44
1AA	0.A	2.A/	1c
.	.	4B\	.
0FF	.	[0c	2r
.	.	.	1f
.	.	.	2e/
=45	=45	=45	=45
1C	1G	1c]	1e
1r	2A/	2F/	2c/
.	2F/	2A/	2.d/
1r	1G	2G/	.
.	.	.	4c/
.	.	2B\	[2d/
=46	=46	=46	=46
0.r	1F	2A/	4d/]
.	.	.	4c/
.	.	2F/	2A/
.	2E/	2G/	2.c/
.	1F	2F/	.
.	.	.	4B/
.	.	1C	2.G/
.	2E/	.	.
.	.	.	4F/
=47	=47	=47	=47
1r	2.F/	1r	1F
.	4G/	.	.
0D	[0A	0F	1r
.	.	.	1d
=48	=48	=48	=48
1C	0.A]	1E	1e
0D	.	0D	1.f
.	.	.	4e/
.	.	.	4d/
=49	=49	=49	=49
!!pagebreak:original
0AA	0A	1E	1c
.	.	1C	1.e
1GG	[1D	[1G	.
.	.	.	2d/
=50	=50	=50	=50
1BB	1D]	1G]	1d
0AA	0E	0A	2c/
.	.	.	1c
.	.	.	2B/
=51	=51	=51	=51
1r	0.D	1.A	2d/
.	.	.	2e/
0D	.	.	1.f
.	.	1B	.
.	.	2A/	2e/
=52	=52	=52	=52
0.F	0r	0A	1.c
.	.	.	1d
.	1F	2.A/	.
.	.	.	2c/
.	.	4B\	.
=53	=53	=53	=53
0.C	0.G	0c	1e
.	.	.	1r
.	.	1r	1e
=54	=54	=54	=54
0.r	1C	1c	1e
.	2D/	2A/	2f/
.	2E/	2G/	1g
.	[1C	1c	.
.	.	.	2f/
=55	=55	=55	=55
0.r	2C/]	2c\	2e/
.	2GG/	2.B\	2.d/
.	2C/	.	.
.	.	4G/	4c/
.	2E/	1G	1c
.	1D	.	.
.	.	2F/	2B/
=56	=56	=56	=56
!!linebreak:original
2.C/	1.C	0G	1c
4D\	.	.	.
1.E	.	.	2r
.	1.G	.	1B
.	.	1r	.
2AA/	.	.	2A/
=57	=57	=57	=57
1AA	1A	1E	2c/
.	.	.	2d/
2.AA/	1A	[0C	1.f
4FF/	.	.	.
2.AA/	1A	.	.
.	.	.	2e/
4BB/	.	.	.
=58	=58	=58	=58
1C	1G	1C]	1e
0FF	0F	[0c	1.a
.	.	.	2g/
=59	=59	=59	=59
1C	1E	1c]	1g
0D	1D	2A/	1.f
.	.	1d	.
.	1A	.	.
.	.	2c\	2e/
=60	=60	=60	=60
1r	1G	1B	1e
0D	0F	1A	2d/
.	.	.	1d
.	.	1r	.
.	.	.	2B/
=61	=61	=61	=61
1AA	[0.E	2.A/	1c
.	.	4F/	.
2GG/	.	2G/	1r
1AA	.	1C	.
.	.	.	1r
2GG/	.	2BB/	.
=62	=62	=62	=62
2AA/	0E]	1C	1r
2EE/	.	.	.
2GG/	.	2BB/	1r
2AA/	.	2C/	.
1FF	1D	1AA	1A
=63	=63	=63	=63
!!linebreak:original
1EE	2.E/	2r	2.G/
.	.	1BB	.
.	4C/	.	4A/
1r	2D/	.	2B/
.	4C/	2AA/	4c/
.	2D/	.	4A/
1r	.	2.F/	4B/
.	4BB/	.	2d/
.	2AA/	.	.
.	.	[4E/	4c/
=64	=64	=64	=64
0.r	4C/	4E/]	4A/
.	4D/	4F/	2A/
.	2BB/	2D/	.
.	.	.	4G#i/
.	1AA	1E	2A/
.	.	.	2r
.	1E	2r	2Gni/
.	.	2G/	2c/
=65	=65	=65	=65
0.r	2F/	2A/	2d/
.	2E/	2B\	2.e/
.	2.C/	2.c\	.
.	.	.	4f/
.	.	.	2.g/
.	4D/	4B\	.
.	2E/	2G/	.
.	.	.	8f/L
.	.	.	8g/J
.	2D/	[2d\	2a/
=66	=66	=66	=66
0.r	2G/	2d\]	2g/
.	2A/	2.c\	4e/
.	.	.	2f/
.	2E/	.	.
.	.	4B\	4g/
.	2G/	1B	4e/
.	.	.	8d/L
.	.	.	8e/J
.	1F	.	4f/
.	.	.	2d/
.	.	2A/	.
.	.	.	4c/
=67	=67	=67	=67
0EE	1E	2B\	2e/
.	.	2r	4d/
.	.	.	2c/
.	2E/	2.BB/	.
.	.	.	8B/L
.	.	.	8A/J
.	2E/	.	4G/
.	.	4AA/	2A/
1r	4F/	2C/	.
.	2E/	.	4G/
.	.	2D/	2F/
.	4D/	.	.
=68	=68	=68	=68
0.EEl	0.El	0.BBl	0.El
!!LO:LB:i:g=z
=69||	=69||	=69||	=69||
!!section: Et incarnatus est
!!!OMD: Et incarnatus est
*M3/1	*M3/1	*M3/1	*M3/1
*met(O)	*met(O)	*met(O)	*met(O)
1.BB	0.r	0.r	0.r
2C/	.	.	.
1D	.	.	.
=70	=70	=70	=70
!!linebreak:original
2.E\	0.r	0.r	1.B
4F\	.	.	.
[0G	.	.	.
.	.	.	2c/
.	.	.	1d
=71	=71	=71	=71
0.G]	0.r	0.r	1e
.	.	.	1d
.	.	.	1g
=72	=72	=72	=72
1D	0.r	0.r	2f/
.	.	.	1a
0A	.	.	.
.	.	.	2g/
.	.	.	2f/
.	.	.	2e/
=73	=73	=73	=73
2G\	0.r	0.r	1.e
1E	.	.	.
2G\	.	.	2d/
2.F\	.	.	2d/
.	.	.	2c/
4E\	.	.	.
=74	=74	=74	=74
4C/	0.r	0.r	1.e
4D\	.	.	.
4E\	.	.	.
4F\	.	.	.
1G	.	.	.
.	.	.	4d/
.	.	.	4c/
1GG	.	.	2.B/
.	.	.	4G/
=75	=75	=75	=75
1C	0.r	0.r	2A/
.	.	.	1G
2BB/	.	.	.
2.C/	.	.	1G
4D\	.	.	.
[2E\	.	.	2G/
=76	=76	=76	=76
2E\]	0.r	0.r	1c
2C/	.	.	.
2D\	.	.	2B/
2BB/	.	.	2d/
1AA	.	.	2c/
.	.	.	[2e/
=77	=77	=77	=77
!!pagebreak:original
1GG	0.r	0.r	4e/]
.	.	.	4d/
.	.	.	2B/
2r	.	.	2c/
1G	.	.	2B/
.	.	.	1G
2E\	.	.	.
=78	=78	=78	=78
2F\	0.r	0.r	2r
2D\	.	.	2f/
2C/	.	.	2e/
2GG/	.	.	1g
2BB/	.	.	.
2C/	.	.	2e/
=79	=79	=79	=79
2.D\	0.r	0.r	2f/
.	.	.	2d/
4E\	.	.	.
2F\	.	.	2.c/
2.E\	.	.	.
.	.	.	4B/
.	.	.	2A/
4F\	.	.	.
2G\	.	.	2G/
=80	=80	=80	=80
2C/	0.r	0.r	1c
1F	.	.	.
.	.	.	2d/
2E\	.	.	2c/
2D\	.	.	2.f/
2BB/	.	.	.
.	.	.	4d/
=81	=81	=81	=81
1AA	1r	0.r	2e/
.	.	.	2f/
1.GG	1r	.	2.g/
.	.	.	4f/
.	1G	.	2d/
[2C/	.	.	[2e/
=82	=82	=82	=82
2C/]	2A/	0.r	4e/]
.	.	.	4c/
2BB/	2B\	.	2d/
2C/	1G	.	4e/
.	.	.	4c/
2E\	.	.	1c
1D	2.F/	.	.
.	.	.	2B/
.	4E/	.	.
=83	=83	=83	=83
1.C	0G	0.r	1c
.	.	.	1r
1BB-i	.	.	.
.	1r	.	[1d
4AA/	.	.	.
4GG/	.	.	.
=84	=84	=84	=84
!!linebreak:original
0FF	0A	0.r	2d/]
.	.	.	2c/
.	.	.	1.f
1F	1A	.	.
.	.	.	2e/
=85	=85	=85	=85
1C	1G	0.r	1.e
0D	1.F	.	.
.	.	.	1d
.	4E/	.	4c/
.	4D/	.	4d/
=86	=86	=86	=86
1AA	2.C/	0.r	2.e/
.	4D/	.	4f/
1r	4E/	.	1g
.	4F/	.	.
.	2G/	.	.
1AA	2A/	.	4f/
.	.	.	4e/
.	2F/	.	8f/L
.	.	.	8e/
.	.	.	8d/
.	.	.	8c/J
=87	=87	=87	=87
!	!LO:N:vis:1	!	!LO:N:vis:1
0.GGl	0.G;	0.r	0.B;
!!LO:LB:i:g=z
=88||	=88||	=88||	=88||
!!section: Crucifixus
!!!OMD: Crucifixus
*M3/1	*M3/1	*M3/1	*M3/1
*met(O)	*met(O)	*met(O)	*met(O)
0.r	0.r	1G	1B
.	.	1G	2B/
.	.	.	1B
.	.	1G	.
.	.	.	2B/
=89	=89	=89	=89
0.r	0.r	0A	1.c
.	.	.	2c/
.	.	1r	1d
=90	=90	=90	=90
0.r	0.r	0A	1c
.	.	.	1.f
.	.	1A	.
.	.	.	2e/
=91	=91	=91	=91
!!linebreak:original
0.r	0.r	0c	1e
.	.	.	1r
.	.	[1c	1e
=92	=92	=92	=92
0.r	0.r	1c]	1.g
.	.	2e\	.
.	.	2c\	2g/
.	.	1B	1g
=93	=93	=93	=93
0.r	0.r	1A	1a
.	.	1r	2g/
.	.	.	2.f/
.	.	1A	.
.	.	.	4d/
.	.	.	2e/
=94	=94	=94	=94
0.r	0.r	2B\	2d/
.	.	2.A/	2c/
.	.	.	2d/
.	.	4G/	.
.	.	1G	2B/
.	.	.	1A
.	.	2F#i/	.
=95	=95	=95	=95
0.r	0.r	1G	2G/
.	.	.	1d
.	.	2r	.
.	.	2d\	2d/
.	.	2c\	2e/
.	.	2B\	2g/
=96	=96	=96	=96
0.r	0.r	1d	2f/
.	.	.	1a
.	.	2B\	.
.	.	2c\	2g/
.	.	1A	2g/
.	.	.	2f#i/
=97	=97	=97	=97
0.r	0.r	1.G	1g
.	.	.	1r
.	.	4F/	.
.	.	4E/	.
.	.	1D	1f
=98	=98	=98	=98
!!linebreak:original
0.r	0.r	1C	1e
.	.	1.F	1.d
.	.	2G/	2c/
=99	=99	=99	=99
0.r	0.r	1A	1c
.	.	2B\	2d/
.	.	2A/	2A/
.	.	2r	1B
.	.	2d\	.
=100	=100	=100	=100
0.r	0.r	2c\	1A
.	.	4B\	.
.	.	2A/	.
.	.	.	2.c/
.	.	4G/	.
.	.	1G	.
.	.	.	4B/
.	.	.	2G/
.	.	2F/	2A/
=101	=101	=101	=101
0.r	0.r	2G/	1G
.	.	2C/	.
.	.	2r	2d/
.	.	2G/	2e/
.	.	2A/	2f/
.	.	2B\	[2g/
=102	=102	=102	=102
0.r	0.r	1c	2g/]
.	.	.	2e/
.	.	2B\	1d
.	.	2G/	.
.	.	2F/	1f
.	.	[2A/	.
=103	=103	=103	=103
0.r	0.r	2A/]	2e/
.	.	2G/	1g
.	.	1E	.
.	.	.	2c/
.	.	2F/	1d
.	.	[2D/	.
=104	=104	=104	=104
0.r	0.r	2D/]	2f/
.	.	2C/	2e/
.	.	2.F/	2c/
.	.	.	2.d/
.	.	4D/	.
.	.	2E/	.
.	.	.	4c/
.	.	2F/	[2c/
=105	=105	=105	=105
!!pagebreak:original
0.r	0.r	1D	2c/]
.	.	.	2B/
.	.	0Cl	0cl
!!LO:LB:i:g=z
=106||	=106||	=106||	=106||
!!section: Et resurrexit
!!!OMD: Et resurrexit
*M2/1	*M2/1	*M2/1	*M2/1
*met(C|)	*met(C|)	*met(C|)	*met(C|)
0BB	1.D	0G	0r
.	2E/	.	.
=107	=107	=107	=107
1AA	0F	[0A	0r
[1D	.	.	.
=108	=108	=108	=108
1D]	1D	1A]	0r
1BB	[1G	1G	.
=109	=109	=109	=109
0AA	1G]	0c	0r
.	1F#i	.	.
=110	=110	=110	=110
[0GG	0G	[0B	1r
.	.	.	[1d
=111	=111	=111	=111
0GG]	1r	0B]	2d/]
.	.	.	2d/
.	[1G	.	1d
=112	=112	=112	=112
!!linebreak:original
[0C	1G]	1r	1.e
.	[1G	[1c	.
.	.	.	2c/
=113	=113	=113	=113
1C]	1G]	0c_	1c
[1F	[1A	.	1c
=114	=114	=114	=114
1F]	1A]	1c]	0f
1D	1B	1d	.
=115	=115	=115	=115
1.C	1.c	0G	1e
.	.	.	1e
2D\	2B\	.	.
=116	=116	=116	=116
1E	1c	1G	1e
1F	1A	1A	2d/
.	.	.	2c/
=117	=117	=117	=117
0G	1.G	[0E	1B
.	.	.	1g
.	2A/	.	.
=118	=118	=118	=118
0r	1B	1E]	1g
.	[1c	1C	[1a
=119	=119	=119	=119
!!linebreak:original
0r	1c]	1F	2a/]
.	.	.	2g/
.	1G	1G	1g
=120	=120	=120	=120
0r	1.A	0D	1r
.	.	.	1f
.	2B\	.	.
=121	=121	=121	=121
0r	[0c	1A	1e
.	.	1F	[1a
=122	=122	=122	=122
0AA	0c]	1.c	2a/]
.	.	.	2g/
.	.	.	1a
.	.	[2e\	.
=123	=123	=123	=123
1C	0r	2e\]	2g/
.	.	2c\	2e/
1BB	.	1d	1f
=124	=124	=124	=124
1C	[0G	1c	1e
1r	.	[1B	1d
=125	=125	=125	=125
0r	1G]	1B]	1e
.	1A	1c	1f
=126	=126	=126	=126
!!linebreak:original
0r	1G	2d\	1.g
.	.	2B\	.
.	[1c	1c	.
.	.	.	2e/
=127	=127	=127	=127
0r	1c]	0G	0d
.	1B	.	.
=128	=128	=128	=128
1r	1c	1C	1c
1GG	1r	2D/	1r
.	.	[2E/	.
=129	=129	=129	=129
1AA	0r	2E/]	0r
.	.	2C/	.
1BB	.	1D	.
=130	=130	=130	=130
1C	1r	2C/	1c
.	.	1c	.
1r	1G	.	2d/
.	.	2B\	[2e/
=131	=131	=131	=131
0r	1A	2c\	2e/]
.	.	2A/	2c/
.	1B	1G	1d
=132	=132	=132	=132
1r	0c	1C	1c
1C	.	1G	1r
=133	=133	=133	=133
!!pagebreak:original
1.F	[0A	1r	1c
.	.	[1c	[1f
2F\	.	.	.
=134	=134	=134	=134
1F	0A]	1c]	2f/]
.	.	.	2f/
[1D	.	[1d	1f
=135	=135	=135	=135
1D]	1A	2d\]	1f
.	.	2c\	.
1D	[1A	1A	1f
=136	=136	=136	=136
0C	1A]	0c	0e
.	1G	.	.
=137	=137	=137	=137
1.BB	1.G	0r	0d
2GG/	2E/	.	.
=138	=138	=138	=138
1AA	2F/	1c	1c
.	2E/	.	.
[1GG	[1G	1d	1B
=139	=139	=139	=139
0GG_	0G]	1.B	0e
.	.	2G/	.
=140	=140	=140	=140
!!linebreak:original
0GG_	1D	1.G	1d
.	[1G	.	2c/
.	.	2F/	[2B-i/
=141	=141	=141	=141
1GG]	1G]	0D	2B-/]
.	.	.	4A/
.	.	.	4G/
1r	[1A	.	1F
=142	=142	=142	=142
0D	1A]	0r	1r
.	1D	.	2F/
.	.	.	2G/
=143	=143	=143	=143
1C	1E	0r	0A
[1D	[1F	.	.
=144	=144	=144	=144
2D\]	2F/]	1r	1A
2C/	2E/	.	.
1AA	1F	1C	1A
=145	=145	=145	=145
0GG	0G	1D	0B
.	.	1E	.
=146	=146	=146	=146
0FF	0A	0F	1A
.	.	.	[1d
=147	=147	=147	=147
!!linebreak:original
1r	1B	1G	1d]
1FF	1A	1F	1c
=148	=148	=148	=148
0GG	0G	0D	0B
=149	=149	=149	=149
1.D	1r	1F	0A
.	1F	1D	.
2C/	.	.	.
=150	=150	=150	=150
1AA	1E	1C	0r
1C	[1A	1E	.
=151	=151	=151	=151
0BB	1A]	2D/	1d
.	.	1D	.
.	1G#i	.	1d
.	.	2C/	.
=152	=152	=152	=152
0AA	0A	0E	1c
.	.	.	1c
=153	=153	=153	=153
0r	1G	1r	1d
.	1B	1G	1d
=154	=154	=154	=154
!!linebreak:original
0r	1.A	1.c	1e
.	.	.	2f/
.	2G/	2B\	[2g/
=155	=155	=155	=155
0r	1B	1d	4g/]
.	.	.	4f/
.	.	.	4e/
.	.	.	4d/
.	2A/	2c\	2f/
.	2G/	2B\	[2e/
=156	=156	=156	=156
0r	2A/	2c\	2e/]
.	2F/	1A	1d
.	2.E/	.	.
.	.	2G/	2c#i/
.	4D/	.	.
=157	=157	=157	=157
1r	1D	1A	1d
1BB	1r	1G	1d
=158	=158	=158	=158
1C	1G	0c	1e
1AA	1A	.	1f
=159	=159	=159	=159
1GG	1B	1d	0g
[1C	[1c	[1e	.
=160	=160	=160	=160
1C]	2c\]	1e]	0c
.	2A/	.	.
[1FF	1A	1r	.
=161	=161	=161	=161
!!pagebreak:original
1FF]	1F	1A	1c
[1C	1r	[1G	1c
=162	=162	=162	=162
1C]	1E	1G]	1c
[1D	[1F	[1F	1A
=163	=163	=163	=163
2D\]	2F/]	2F/]	1B
2C/	2E/	2G/	.
1AA	1F	1A	1c
=164	=164	=164	=164
1.GG	1G	1B	0d
.	1B	1G	.
2EE/	.	.	.
=165	=165	=165	=165
1FF	1A	1c	1c
1GG	[1G	1r	1B
=166	=166	=166	=166
0AA	1G]	1.c	0A
.	1F#i	.	.
.	.	4B\	.
.	.	4A/	.
=167	=167	=167	=167
1r	0G	1B	0G
[1E	.	1B	.
=168	=168	=168	=168
!!linebreak:original
2E\]	0C	[0c	1r
2F\	.	.	.
1G	.	.	1e
=169	=169	=169	=169
1.C	1G	0c]	1e
.	1A	.	[1e
4BB/	.	.	.
4AA/	.	.	.
=170	=170	=170	=170
1GG	1B	1r	1e]
[1C	1G	[1c	[1e
=171	=171	=171	=171
2C/]	0c	2c\]	1e]
2D\	.	2B\	.
1E	.	1G	1e
=172	=172	=172	=172
0F	1c	1F	1a
.	[1c	[1f	1a
=173	=173	=173	=173
1F	1c]	2f\]	1a
.	.	2e\	.
[1F	[1F	2d\	1a
.	.	2c\	.
=174	=174	=174	=174
1F]	1F]	1.c	1a
[1C	1E	.	2g/
.	.	[2G/	[2g/
=175	=175	=175	=175
!!linebreak:original
1C]	1C	2G/]	2g/]
.	.	2A/	2e/
1BB	1D	1B	1f
=176	=176	=176	=176
1.C	0C	1G	1e
.	.	1c	1e
4BB/	.	.	.
4AA/	.	.	.
=177	=177	=177	=177
1GG	1r	1.B	1g
1r	1E	.	1g
.	.	2c\	.
=178	=178	=178	=178
1BB	1D	1d	1f
1C	2C/	1r	1e
.	[2G/	.	.
=179	=179	=179	=179
0GG	2G/]	0G	1.d
.	2A/	.	.
.	1B	.	.
.	.	.	4c/
.	.	.	4B/
=180	=180	=180	=180
0r	0c	0F	0A
=181	=181	=181	=181
0r	0F	1r	1A
.	.	[1D	1A
=182	=182	=182	=182
!!linebreak:original
0r	1r	2D/]	1A
.	.	2E/	.
.	1F	1F	1A
=183	=183	=183	=183
0r	1.E	1C	1G
.	.	2G/	1c
.	[2F/	[2A/	.
=184	=184	=184	=184
0r	2F/]	2A/]	2d/
.	2E/	2G/	2c/
.	1D	2B\	1f
.	.	2A/	.
=185	=185	=185	=185
0r	1.C	2.c\	1.e
.	.	4A/	.
.	.	2G/	.
.	[2F/	[2A/	2c/
=186	=186	=186	=186
0r	2F/]	2A/]	2d/
.	2E/	2G/	2B/
.	2F/	2D/	2A/
.	2G/	[2E/	[2G/
=187	=187	=187	=187
1r	1C	2E/]	2G/]
.	.	2F/	1c
1GG	1D	1G	.
.	.	.	2B/
=188	=188	=188	=188
1AA	1C	0r	0c
1C	1C	.	.
=189	=189	=189	=189
!!pagebreak:original
0BB	1D	0r	0r
.	1F	.	.
=190	=190	=190	=190
1C	0E	0r	1r
1C	.	.	1G
=191	=191	=191	=191
1FF	1F	0r	1A
1FF	1A	.	1c
=192	=192	=192	=192
0GG	1G	1r	0B
.	1G	1G	.
=193	=193	=193	=193
1r	0C	1A	1c
1AA	.	1c	1c
=194	=194	=194	=194
1GG	1r	0B	1d
1GG	1G	.	1d
=195	=195	=195	=195
1C	1A	1c	1c
1E	1c	1c	1c
=196	=196	=196	=196
!!linebreak:original
0D	1B	1d	1f
.	1B	1d	1f
=197	=197	=197	=197
0C	1.c	0G	1e
.	.	.	1e
.	2A/	.	.
=198	=198	=198	=198
0GG	1.B	0r	0d
.	[2G/	.	.
=199	=199	=199	=199
2r	2G/]	0r	2.g/
2D\	1B	.	.
.	.	.	4f/
2E\	.	.	2g/
[2F\	2A/	.	[2a/
=200	=200	=200	=200
2F\]	2c\	1r	2a/]
2G\	2G/	.	1g
1D	1A	1d	.
.	.	.	2f#i/
=201	=201	=201	=201
0GG	1.G	1.d	1g
.	.	.	1r
.	2E/	4c\	.
.	.	4d\	.
=202	=202	=202	=202
1C	1E	2e\	1g
.	.	1c	.
1E	1E	.	1g
.	.	4B\	.
.	.	4c\	.
=203	=203	=203	=203
!!linebreak:original
0D	1.F	2.d\	1.a
.	.	4c\	.
.	.	2.A/	.
.	4E/	.	4g/
.	4F/	4B\	4f/
=204	=204	=204	=204
0C	1.G	[0c	0e
.	2C/	.	.
=205	=205	=205	=205
1G	0C	0c]	1e
1E	.	.	1g
=206	=206	=206	=206
2r	1D	0r	1f
2D\	.	.	.
2C/	2E/	.	2e/
[2BB-i/	[2F/	.	[2d/
=207	=207	=207	=207
2BB-/]	2F/]	1r	2d/]
2GG/	2E/	.	4c/
.	.	.	4B/
[1FF	2.F/	[1c	1A
.	4G/	.	.
=208	=208	=208	=208
0FF]	4A/	2c\]	2A/
.	4B\	.	.
.	1c	2A/	2A/
.	.	1F	2A/
.	2A/	.	2A/
=209	=209	=209	=209
1r	1G	2.E/	1B
.	.	4D/	.
[1FF	[1F	1F	2A/
.	.	.	[2c/
=210	=210	=210	=210
!!linebreak:original
1FF]	1F]	1C	2c/]
.	.	.	2A/
1C	1E	1r	1G
=211	=211	=211	=211
1FF	1F	1c	2r
.	.	.	2F/
1r	2E/	2r	2G/
.	[2D/	[2F/	2A/
=212	=212	=212	=212
1r	2D/]	2F/]	2B/
.	2C/	2G/	1c
[1FF	1F	1A	.
.	.	.	2d/
=213	=213	=213	=213
1FF]	2A/	1F	2c/
.	2F/	.	1f
1C	1G	1C	.
.	.	.	2e/
=214	=214	=214	=214
0FF	0F	0c	1f
.	.	.	1r
=215	=215	=215	=215
1BB-	1D	1r	1f
1D	1D	1B-i	1f
=216	=216	=216	=216
0C	1.E	[0c	1.g
.	2C/	.	2e/
=217	=217	=217	=217
!!pagebreak:original
0G	0C	1c]	0e
.	.	2B\	.
.	.	2A/	.
=218	=218	=218	=218
0r	0r	0G	1e
.	.	.	1e
=219	=219	=219	=219
0r	0C	1r	1e
.	.	[1c	1e
=220	=220	=220	=220
0r	0D	2c\]	0f
.	.	2A/	.
.	.	1B	.
=221	=221	=221	=221
0r	1C	1c	1e
.	1D	1F	1d
=222	=222	=222	=222
0r	1E	1G	1c
.	1F	1A	[1d
=223	=223	=223	=223
0r	1G	1r	1d]
.	[1A	1A	1c
=224	=224	=224	=224
!!linebreak:original
1.D	1A]	0d	0B
.	1G#i	.	.
2E\	.	.	.
=225	=225	=225	=225
3%4FV	[0A	[0c	3%4AV
[3%2CZ	.	.	[3%2eZ
=226	=226	=226	=226
3%2C]V	0A]	3%2c]V	3%2e]V
[3%4DZ	.	3%4AZ	3%2f
.	.	.	3%2dZ
=227	=227	=227	=227
3%4D]V	3%4FV	3%4BV	0d
[3%2AAZ	[3%2EZ	[3%2AZ	.
=228	=228	=228	=228
0AA]	0E]	0A_	3%2BV
.	.	.	3%4c#iZ
=229	=229	=229	=229
[0F	[0D	0A_	0d
=230	=230	=230	=230
0F]	0D]	3%2A]V	3%2rV
.	.	3%2r	[3%4dZ
.	.	3%2rZ	.
=231	=231	=231	=231
!!linebreak:original
[0D	3%2.BBV	3%2rV	3%2d]V
.	.	3%2r	3%2e
.	3C/	.	.
.	[3%2DZ	[3%2AZ	[3%2fZ
=232	=232	=232	=232
3%2D]V	3%2D]V	3A/]V	3f/]V
.	.	3B\	6e/
.	.	.	6f/
3%2E	3%4CZ	[3%4cZ	3%2.g
3%2CZ	.	.	.
.	.	.	3e/Z
=233	=233	=233	=233
3%2AAV	3%2rV	3%2c]V	3%2.fV
3%4BB-Z	3%4FZ	3%4B-iZ	.
.	.	.	3e/
.	.	.	3d/
.	.	.	3c/Z
=234	=234	=234	=234
3%2CV	3%2EV	3%2GV	3%4cV
3%4GGZ	3%4DZ	[3%4GZ	.
.	.	.	3%2BZ
=235	=235	=235	=235
3%2rV	[0C	3%4G]V	3%4cV
3%4CZ	.	.	.
.	.	[3%2cZ	3%2rZ
=236	=236	=236	=236
3%2AAV	3%2C]V	3%2c]V	3%2rV
3%4GGZ	3%4EZ	3%4BZ	3%4gZ
=237	=237	=237	=237
3%4FFV	3%4FV	3%4AV	3%4aV
3%2rZ	[3%2CZ	[3%2cZ	3%2gZ
=238	=238	=238	=238
!!linebreak:original
3%2CV	3%2C]V	3c\]V	3%4eV
.	.	3B\	.
3%4CZ	3%4EZ	3G/	.
.	.	3%2c	.
.	.	.	3%2gZ
.	.	3A/Z	.
=239	=239	=239	=239
3%2DV	3%2DV	3%2BV	3%2fV
3%2C	3%2G	3%4cZ	3%4eZ
[3%2AAZ	3%2AZ	.	.
=240	=240	=240	=240
3%2AA]V	3%4AV	3%2AV	3%2cV
3%2r	.	3%4EZ	3%4BZ
3%2EZ	3%2GZ	.	.
=241	=241	=241	=241
3%2.FV	3%2.AV	3%2rV	3%2AV
.	.	3%2r	3%2.c
3E\	6G/	.	.
.	6F/	.	.
[3%2CZ	[3%2EZ	[3%2cZ	.
.	.	.	3B/Z
=242	=242	=242	=242
3%2C]V	3E/]V	3c\]V	3%4GV
.	6D/	3B\	.
.	6C/	.	.
3%2D	3%2BB	3%2G	.
[3%2EZ	3%2AAZ	3%2AZ	[3%2cZ
=243	=243	=243	=243
3E\]V	3%2.CV	3%2GV	3c/]V
3F\	.	.	3d/
3%2G	.	[3%4cZ	3%2.e
.	3D/	.	.
[3%2CZ	3%2EZ	.	.
.	.	.	3f/Z
=244	=244	=244	=244
3C/]V	3E/V	3%2c]V	3%2.gV
3AA/	3F/	.	.
3%2GG	3%2.G	3%2B	.
.	.	.	3f/
[3%2BB-Z	.	[3%2dZ	3%2dZ
.	3F/Z	.	.
=245	=245	=245	=245
!!pagebreak:original
3BB-/]V	3%2DV	3%2d]V	3%2.aV
3AA/	.	.	.
3%4FFZ	3%4AZ	3%2c	.
.	.	.	3g/
.	.	[3%2cZ	3f/
.	.	.	3e/Z
=246	=246	=246	=246
3%2CV	3%2GV	3%2c]V	3%4eV
3%4DZ	3%4FZ	[3%4AZ	.
.	.	.	3%2dZ
=247	=247	=247	=247
3%2.AAV	[0El	3%2A]V	[0el
.	.	3%2B	.
3GG/	.	.	.
[3%2AAZ	.	[3%2cZ	.
=248	=248	=248	=248
3%2AA]V	0E_	3%4c]V	0e_
[3%4EElZ	.	.	.
.	.	3%2BZ	.
=249	=249	=249	=249
0EE]	0E]	3%4BV	0e]
.	.	3%2BlZ	.
==	==	==	==
*-	*-	*-	*-
!!!RDF**kern: l=long note in original notation
!!!RDF**kern: i=editorial accidental
!!!RDF**kern: V=start of tuplet marker
!!!RDF**kern: Z=end of tuplet marker
!!!RDF**kern: %=rational rhythm
!!!rscale-alt: 1/2
!!!ENC:	Will Watson 22/1/2012
!!!END:	2012/01/22/
!!!EED:	Jesse Rodin
!!!EEV:	2012/03/13/
!!!ONB:	Translated from MusicXML and edited on 2012/03/13/ by Craig Sapp
!!muse2ps: T^@{OPR}^u^@{ONM}{. }@{OTL}^C^@{COM}^i2I100v85,90,85,150Q16
